build/svg/cmd/32/superscript.svg

<?xml version="1.0" encoding="UTF-8" standalone="no"?>
<svg
   xmlns:dc="http://purl.org/dc/elements/1.1/"
   xmlns:cc="http://creativecommons.org/ns#"
   xmlns:rdf="http://www.w3.org/1999/02/22-rdf-syntax-ns#"
   xmlns:svg="http://www.w3.org/2000/svg"
   xmlns="http://www.w3.org/2000/svg"
   xmlns:sodipodi="http://sodipodi.sourceforge.net/DTD/sodipodi-0.dtd"
   xmlns:inkscape="http://www.inkscape.org/namespaces/inkscape"
   viewBox="0 0 32 32"
   version="1.1"
   id="svg6"
   sodipodi:docname="superscript.svg"
   inkscape:export-filename="/home/jupiter007/Libreoffice yaru theme fullcolor/build/cmd/32/superscript.png"
   inkscape:export-xdpi="96"
   inkscape:export-ydpi="96"
   inkscape:version="0.92.5 (2060ec1f9f, 2020-04-08)">
  <metadata
     id="metadata12">
    <rdf:RDF>
      <cc:Work
         rdf:about="">
        <dc:format>image/svg+xml</dc:format>
        <dc:type
           rdf:resource="http://purl.org/dc/dcmitype/StillImage" />
      </cc:Work>
    </rdf:RDF>
  </metadata>
  <defs
     id="defs10" />
  <sodipodi:namedview
     pagecolor="#ffffff"
     bordercolor="#666666"
     borderopacity="1"
     objecttolerance="10"
     gridtolerance="10"
     guidetolerance="10"
     inkscape:pageopacity="0"
     inkscape:pageshadow="2"
     inkscape:window-width="1920"
     inkscape:window-height="1011"
     id="namedview8"
     showgrid="true"
     inkscape:zoom="14.75"
     inkscape:cx="-4.1770193"
     inkscape:cy="17.879317"
     inkscape:window-x="0"
     inkscape:window-y="32"
     inkscape:window-maximized="1"
     inkscape:current-layer="svg6">
    <inkscape:grid
       type="xygrid"
       id="grid823" />
  </sodipodi:namedview>
  <path
     style="fill:#000000;fill-opacity:1;stroke:#000000;opacity:0.6;stroke-width:2;stroke-miterlimit:4;stroke-dasharray:none;stroke-linejoin:round"
     id="path825"
     fill="#762572"
     d="m20 2v10h1 4a3 3 0 0 0 3-3 3 3 0 0 0 -1.746094-2.7226562 2.5 2.5 0 0 0 .746094-1.7773438 2.5 2.5 0 0 0 -2.400391-2.4960938v-.0039062h-3.599609zm1 1h3.5a1.5 1.5 0 0 1 1.5 1.5 1.5 1.5 0 0 1 -1.5 1.5h-3.5zm0 4h4a2 2 0 0 1 2 2 2 2 0 0 1 -2 2h-4z" />
  <path
     d="m20 2v10h1 4a3 3 0 0 0 3-3 3 3 0 0 0 -1.746094-2.7226562 2.5 2.5 0 0 0 .746094-1.7773438 2.5 2.5 0 0 0 -2.400391-2.4960938v-.0039062h-3.599609zm1 1h3.5a1.5 1.5 0 0 1 1.5 1.5 1.5 1.5 0 0 1 -1.5 1.5h-3.5zm0 4h4a2 2 0 0 1 2 2 2 2 0 0 1 -2 2h-4z"
     fill="#762572"
     id="path4"
     style="fill:#aee3f8;fill-opacity:1" />
  <path
     inkscape:connector-curvature="0"
     id="path833"
     d="M 12.000001,6 3.0000004,26 H 6.0000005 L 8.908204,20 H 19.091797 L 22,26 h 3 L 16,6 H 14 Z M 14,8.402344 17.849609,17 H 14 10.150392 Z"
     style="opacity:0.6;fill:#000000;fill-opacity:1;stroke:#000000;stroke-width:2;stroke-linejoin:round;stroke-miterlimit:4;stroke-dasharray:none" />
  <path
     inkscape:connector-curvature="0"
     style="fill:#ffffff;fill-opacity:1"
     d="M 12.000001,6 3.0000004,26 H 6.0000005 L 8.908204,20 H 19.091797 L 22,26 h 3 L 16,6 H 14 Z M 14,8.402344 17.849609,17 H 14 10.150392 Z"
     id="path2-3" />
</svg>

<svg xmlns="http://www.w3.org/2000/svg" viewBox="0 0 32 32"><path d="M20 2v10h5a3 3 0 003-3 3 3 0 00-1.746-2.723A2.5 2.5 0 0027 4.5a2.5 2.5 0 00-2.4-2.496V2H21zm1 1h3.5A1.5 1.5 0 0126 4.5 1.5 1.5 0 0124.5 6H21zm0 4h4a2 2 0 012 2 2 2 0 01-2 2h-4z" stroke="#000" opacity=".6" stroke-width="2" stroke-linejoin="round"/><path d="M20 2v10h5a3 3 0 003-3 3 3 0 00-1.746-2.723A2.5 2.5 0 0027 4.5a2.5 2.5 0 00-2.4-2.496V2H21zm1 1h3.5A1.5 1.5 0 0126 4.5 1.5 1.5 0 0124.5 6H21zm0 4h4a2 2 0 012 2 2 2 0 01-2 2h-4z" fill="#aee3f8"/><path d="M12 6L3 26h3l2.908-6h10.184L22 26h3L16 6h-2zm2 2.402L17.85 17h-7.7z" opacity=".6" stroke="#000" stroke-width="2" stroke-linejoin="round"/><path d="M12 6L3 26h3l2.908-6h10.184L22 26h3L16 6h-2zm2 2.402L17.85 17h-7.7z" fill="#fff"/></svg>
